kwork_juristConsalt/img/svg/choose.svg

<svg width="180" height="180" viewBox="0 0 180 180" fill="none" xmlns="http://www.w3.org/2000/svg">
<g clip-path="url(#clip0)">
<rect width="180" height="180" rx="90" fill="white"/>
<path fill-rule="evenodd" clip-rule="evenodd" d="M128.815 158.436C138.972 171.159 154.226 181.527 156.417 197.699C158.646 214.155 155.518 236.762 140.465 244.446C122.201 253.769 99.7186 227.726 81.0376 236.176C65.3157 243.287 75.3219 277.421 58.5777 281.485C43.9219 285.043 41.5308 257.737 29.8312 248.606C20.4702 241.3 2.68887 244.862 -2.17911 234.065C-7.19507 222.94 8.71066 211.198 7.4731 199.018C5.99055 184.427 -12.8771 173.915 -9.75582 159.498C-6.85404 146.095 8.19749 136.502 21.6852 133.375C34.8167 130.329 46.3938 144.263 59.813 143.365C74.5769 142.378 86.4668 124.941 100.846 128.082C114.66 131.099 120.087 147.502 128.815 158.436Z" fill="#1C3C89"/>
</g>
<defs>
<clipPath id="clip0">
<rect width="180" height="180" rx="90" fill="white"/>
</clipPath>
</defs>
</svg>

<svg width="180" height="180" fill="none" xmlns="http://www.w3.org/2000/svg"><g clip-path="url(#clip0)"><rect width="180" height="180" rx="90" fill="#fff"/><path fill-rule="evenodd" clip-rule="evenodd" d="M128.815 158.436c10.157 12.723 25.411 23.091 27.602 39.263 2.229 16.456-.899 39.063-15.952 46.747-18.264 9.323-40.746-16.72-59.427-8.27-15.722 7.111-5.716 41.245-22.46 45.309-14.656 3.558-17.047-23.748-28.747-32.879-9.36-7.306-27.142-3.744-32.01-14.541-5.016-11.125 10.89-22.867 9.652-35.047-1.482-14.591-20.35-25.103-17.229-39.52 2.902-13.403 17.953-22.996 31.441-26.123 13.132-3.046 24.709 10.888 38.128 9.99 14.764-.987 26.654-18.424 41.033-15.283 13.814 3.017 19.241 19.42 27.969 30.354z" fill="#1C3C89"/></g><defs><clipPath id="clip0"><rect width="180" height="180" rx="90" fill="#fff"/></clipPath></defs></svg>
